X:057
U: ~ = !turn!
%%topmargin 3cm
T:Down the Broom
B:Traditional Irish Fiddle Tunes. Randy Miller and Jack Perron.
Z:Transcribed by Ralph Palmer
R:Reel
M:C|
L:1/8
K:G
AG |: EA (3.A.A.A A2 Bd | eg (3{/a}(gfg) egdc "(A"| BG (3.G.G.G GAGE | ((3DED) B,D DEGD "A)"|
EA (3.A.A.A A2 Bd | eg (3{/a}(gfg) egdg | eg (3{/a}(gfg) dgba | gedB {/c}BA A2 ::
a2 ea {/b}ageg | {/b}agbg agef | {/a}g2 dg Bgdg | {/a}geae gede |
a2 ea {/b}ageg | {/b}agbg aged | eg (3{/a}(gfg) dgba | gedB {/c}BA A2 :|
x8 "(A"|BG (3.G.G.G G2 BG | (3.G.G.G BG AGED "A)"| x8 [|] x8 [|] x8 [|] x8 [|]
